lib/brands/logos/facebook.svg

<svg xmlns="http://www.w3.org/2000/svg" fill="none" aria-hidden="true" viewBox="0 0 329 42"><g id="Facebook"><g id="Union"><path fill="#61778C" d="M79.8557 20.8458C79.8557 10.602 86.6059 3.42709 96.2361 3.42709H96.9437C102.986 3.42709 107.66 6.49522 110.138 10.9325C110.303 11.2159 110.256 11.4518 109.973 11.5936L105.819 13.6467C105.535 13.7883 105.181 13.7883 104.992 13.4345C103.246 10.4134 100.626 8.80841 96.7551 8.80841H96.047C89.9814 8.80841 85.8034 13.6234 85.8034 20.6099C85.8034 27.6199 89.9104 32.3166 96.047 32.3166H96.7551C100.721 32.3166 103.033 30.9712 104.804 28.9178C105.04 28.658 105.299 28.611 105.583 28.7525L109.855 30.8296C110.02 30.9239 110.09 31.0418 110.09 31.16C110.09 31.278 110.043 31.3725 109.949 31.5139C107.329 35.3377 102.609 37.6979 96.8497 37.6979H96.1415C86.3466 37.6979 79.8557 30.9712 79.8557 20.8458Z"/><path fill="#61778C" d="M33.3605 8.85562V4.51269C33.3605 4.22952 33.1716 4.04065 32.8884 4.04065H9.09702C8.81385 4.04065 8.62524 4.22952 8.62524 4.51269V36.6122C8.62524 36.8956 8.81385 37.0842 9.09702 37.0842H13.7704C14.0538 37.0842 14.2424 36.8956 14.2424 36.6122V23.4891H29.6314C29.9146 23.4891 30.1035 23.3005 30.1035 23.0173V18.6742C30.1035 18.391 29.9146 18.2024 29.6314 18.2024H14.2424V9.32765H32.8884C33.1716 9.32765 33.3605 9.13879 33.3605 8.85562Z"/><path fill="#61778C" fill-rule="evenodd" d="M66.2617 37.0842H71.4071C71.7376 37.0842 71.9264 36.8956 71.8319 36.5649C68.8344 26.0384 64.3735 14.4022 59.7474 4.65428C59.5349 4.20588 59.2751 4.04065 58.8267 4.04065H52.1239C51.6755 4.04065 51.4157 4.20588 51.2032 4.65428C46.6244 14.4255 42.0926 26.0384 39.1187 36.5649C39.0242 36.8956 39.2133 37.0842 39.5438 37.0842H44.5C44.7832 37.0842 44.9723 36.9424 45.043 36.6592C45.7039 33.9449 46.53 31.089 47.4739 28.2095H63.2642C64.2086 31.089 65.0342 33.9449 65.719 36.6592C65.7896 36.9424 65.9785 37.0842 66.2617 37.0842ZM55.9236 9.2331C57.8829 13.576 59.7947 18.3437 61.5174 23.1114H49.1968C50.92 18.3437 52.8554 13.576 54.8145 9.2331H55.9236Z" clip-rule="evenodd"/><path fill="#61778C" d="M147.736 36.6122V32.2693C147.736 31.9861 147.547 31.7972 147.263 31.7972H127.626V23.1587H143.251C143.534 23.1587 143.723 22.9698 143.723 22.6866V18.391C143.723 18.1078 143.534 17.9187 143.251 17.9187H127.626V9.32765H146.839C147.122 9.32765 147.311 9.13879 147.311 8.85562V4.51269C147.311 4.22952 147.122 4.04065 146.839 4.04065H122.481C122.198 4.04065 122.009 4.22952 122.009 4.51269V36.6122C122.009 36.8956 122.198 37.0842 122.481 37.0842H147.263C147.547 37.0842 147.736 36.8956 147.736 36.6122Z"/><path fill="#61778C" fill-rule="evenodd" d="M190.408 28.0209C190.408 33.8033 185.971 37.0842 178.134 37.0842H161.896C161.613 37.0842 161.424 36.8956 161.424 36.6122V4.51269C161.424 4.22952 161.613 4.04065 161.896 4.04065H176.695C184.318 4.04065 188.472 7.06176 188.472 12.5847C188.472 16.2194 186.632 18.6035 182.902 19.7125C188.142 20.8219 190.408 23.9612 190.408 28.0209ZM184.649 27.525C184.649 24.4568 182.619 23.0641 178.158 23.0641H167.041V31.9388H178.158C182.69 31.9388 184.649 30.617 184.649 27.525ZM176.577 9.18608H167.041V18.0605H176.577C180.849 18.0605 182.808 16.6678 182.808 13.6233C182.808 10.5783 180.849 9.18608 176.577 9.18608Z" clip-rule="evenodd"/><path fill="#61778C" fill-rule="evenodd" d="M217.289 3.42709C206.905 3.42709 200.296 10.602 200.296 20.5626C200.296 30.5228 206.905 37.6979 217.289 37.6979H217.999C228.382 37.6979 234.991 30.5228 234.991 20.5626C234.991 10.602 228.382 3.42709 217.999 3.42709H217.289ZM229.045 20.5626C229.045 27.6669 224.771 32.3166 217.999 32.3166H217.289C210.516 32.3166 206.244 27.6669 206.244 20.5626C206.244 13.4579 210.516 8.80841 217.289 8.80841H217.999C224.771 8.80841 229.045 13.4579 229.045 20.5626Z" clip-rule="evenodd"/><path fill="#61778C" fill-rule="evenodd" d="M244.573 20.5626C244.573 10.602 251.182 3.42709 261.568 3.42709H262.275C272.661 3.42709 279.27 10.602 279.27 20.5626C279.27 30.5228 272.661 37.6979 262.275 37.6979H261.568C251.182 37.6979 244.573 30.5228 244.573 20.5626ZM262.275 32.3166C269.05 32.3166 273.321 27.6669 273.321 20.5626C273.321 13.4579 269.05 8.80841 262.275 8.80841H261.568C254.793 8.80841 250.522 13.4579 250.522 20.5626C250.522 27.6669 254.793 32.3166 261.568 32.3166H262.275Z" clip-rule="evenodd"/><path fill="#61778C" d="M313.893 37.0842H319.982C320.361 37.0842 320.502 36.8008 320.242 36.494C315.192 30.5461 309.645 25.0229 303.792 20.0666C308.44 16.1014 313.469 10.9797 318.543 4.72494C318.66 4.58335 318.709 4.46541 318.709 4.3711C318.709 4.18223 318.566 4.04065 318.283 4.04065H312.523C312.24 4.04065 312.051 4.08768 311.817 4.39449C308.346 8.9029 304.098 13.3871 299.495 17.5415H296.71V4.51269C296.71 4.22952 296.52 4.04065 296.237 4.04065H291.564C291.28 4.04065 291.093 4.22952 291.093 4.51269V36.6122C291.093 36.8956 291.28 37.0842 291.564 37.0842H296.237C296.52 37.0842 296.71 36.8956 296.71 36.6122V22.9698H299.448C303.745 26.6521 308.795 31.6557 313.066 36.6829C313.326 36.9897 313.492 37.0842 313.893 37.0842Z"/></g></g></svg>

<svg xmlns="http://www.w3.org/2000/svg" fill="none" aria-hidden="true" viewBox="0 0 329 42"><path fill="#61778C" d="M79.856 20.846c0-10.244 6.75-17.419 16.38-17.419h.708c6.042 0 10.716 3.068 13.194 7.505.165.284.118.52-.165.662l-4.154 2.053c-.284.141-.638.141-.827-.213-1.746-3.02-4.366-4.626-8.237-4.626h-.708c-6.066 0-10.244 4.815-10.244 11.802 0 7.01 4.107 11.707 10.244 11.707h.708c3.966 0 6.278-1.346 8.049-3.4.236-.259.495-.306.779-.164l4.272 2.077c.165.094.235.212.235.33 0 .118-.047.213-.141.354-2.62 3.824-7.34 6.184-13.1 6.184h-.708c-9.794 0-16.285-6.727-16.285-16.852ZM33.36 8.856V4.513c0-.283-.188-.472-.472-.472H9.097c-.283 0-.472.189-.472.472v32.1c0 .283.189.471.472.471h4.673c.284 0 .472-.188.472-.472V23.49h15.39c.283 0 .471-.189.471-.472v-4.343c0-.283-.188-.472-.472-.472H14.242V9.328h18.646c.284 0 .473-.19.473-.472Z"/><path fill="#61778C" fill-rule="evenodd" d="M66.262 37.084h5.145c.33 0 .52-.188.425-.52-2.998-10.526-7.458-22.162-12.085-31.91-.212-.448-.472-.613-.92-.613h-6.703c-.449 0-.708.165-.92.613-4.58 9.772-9.111 21.384-12.085 31.91-.095.332.094.52.425.52H44.5c.283 0 .472-.142.543-.425.66-2.714 1.487-5.57 2.43-8.45h15.791c.945 2.88 1.77 5.736 2.455 8.45.07.283.26.425.543.425ZM55.924 9.234c1.959 4.342 3.87 9.11 5.593 13.877h-12.32a197.686 197.686 0 0 1 5.617-13.878h1.11Z" clip-rule="evenodd"/><path fill="#61778C" d="M147.736 36.612V32.27c0-.283-.189-.472-.473-.472h-19.637V23.16h15.625c.283 0 .472-.19.472-.472V18.39c0-.283-.189-.472-.472-.472h-15.625v-8.59h19.213c.283 0 .472-.19.472-.472V4.513c0-.283-.189-.472-.472-.472h-24.358c-.283 0-.472.189-.472.472v32.1c0 .283.189.471.472.471h24.782c.284 0 .473-.188.473-.472Z"/><path fill="#61778C" fill-rule="evenodd" d="M190.408 28.02c0 5.783-4.437 9.064-12.274 9.064h-16.238c-.283 0-.472-.188-.472-.472v-32.1c0-.282.189-.471.472-.471h14.799c7.623 0 11.777 3.02 11.777 8.544 0 3.634-1.84 6.018-5.57 7.128 5.24 1.109 7.506 4.248 7.506 8.308Zm-5.759-.495c0-3.068-2.03-4.46-6.491-4.46h-11.117v8.874h11.117c4.532 0 6.491-1.322 6.491-4.414Zm-8.072-18.339h-9.536v8.875h9.536c4.272 0 6.231-1.393 6.231-4.438s-1.959-4.437-6.231-4.437Zm40.712-5.759c-10.384 0-16.993 7.175-16.993 17.136 0 9.96 6.609 17.135 16.993 17.135h.71c10.383 0 16.992-7.175 16.992-17.135 0-9.961-6.609-17.136-16.992-17.136h-.71Zm11.756 17.136c0 7.104-4.274 11.754-11.046 11.754h-.71c-6.773 0-11.045-4.65-11.045-11.754 0-7.105 4.272-11.755 11.045-11.755h.71c6.772 0 11.046 4.65 11.046 11.755Zm15.528 0c0-9.961 6.609-17.136 16.995-17.136h.707c10.386 0 16.995 7.175 16.995 17.136 0 9.96-6.609 17.135-16.995 17.135h-.707c-10.386 0-16.995-7.175-16.995-17.135Zm17.702 11.754c6.775 0 11.046-4.65 11.046-11.754 0-7.105-4.271-11.755-11.046-11.755h-.707c-6.775 0-11.046 4.65-11.046 11.755 0 7.104 4.271 11.754 11.046 11.754h.707Z" clip-rule="evenodd"/><path fill="#61778C" d="M313.893 37.084h6.089c.379 0 .52-.283.26-.59a142.192 142.192 0 0 0-16.45-16.427c4.648-3.965 9.677-9.087 14.751-15.342.117-.142.166-.26.166-.354 0-.189-.143-.33-.426-.33h-5.76c-.283 0-.472.047-.706.354-3.471 4.508-7.719 8.992-12.322 13.146h-2.785V4.513c0-.283-.19-.472-.473-.472h-4.673c-.284 0-.471.189-.471.472v32.1c0 .283.187.471.471.471h4.673c.283 0 .473-.188.473-.472V22.97h2.738c4.297 3.682 9.347 8.686 13.618 13.713.26.307.426.401.827.401Z"/></svg>
